icons/timesheet-unapproved-filled.svg

<svg
  xmlns="http://www.w3.org/2000/svg"
  viewBox="0 0 500 500"
  width="500"
  height="500"
  fill="#ffffff"
>
  <path d="M351.1 114.55H151.45a12.74 12.74 0 0 0-12.75 12.75V146c6.08 13.51 82.05 85.81 101.93 97.28V258c-11.48 5.92-47.63 38-74.33 64.2h29.55l4.65-3.76c17.78-14.47 39.83-32.4 42.53-35.62v19c-5.56 4.65-13.5 11.25-24.68 20.33h113.48c-25.13-25.13-59-55.73-71.86-63.45v-15.3c19-10.65 97.66-84 103.88-97.43V127.3a12.74 12.74 0 0 0-12.75-12.75zM242.43 228.47l-10.13-10c.45-.45 48.68-41.85 74.48-63.15h22.42c-4.65 3.33-82.8 69.48-86.77 73.15z" />
  <path d="M250 5C114.69 5 5 114.69 5 250s109.69 245 245 245 245-109.69 245-245S385.31 5 250 5zM126.25 66.25H376.3v13.2h-250zm250.05 367.5h-250v-13.2h250zM378 146.8c0 14.25-74.47 82.5-104.62 104.4 29.1 22.05 102.08 89 102.08 103.65v19.58a27.06 27.06 0 0 1-26.93 26.92H148.9a27 27 0 0 1-26.9-26.92v-19.58c0-14.17 74.47-82.42 104.62-104.33-29.1-22.05-102.07-89.1-102.07-103.72v-19.5a26.94 26.94 0 0 1 26.92-26.92H351.1A26.94 26.94 0 0 1 378 127.3z" />
</svg>

<svg xmlns="http://www.w3.org/2000/svg" viewBox="0 0 500 500">
  <g id="timesheet-unapproved-filled">
    <path id="hourglass" d="M351.1,114.55H151.45A12.74,12.74,0,0,0,138.7,127.3V146c6.08,13.51,82.05,85.81,101.93,97.28V258c-11.48,5.92-47.63,38-74.33,64.2h29.55l4.65-3.76c17.78-14.47,39.83-32.4,42.53-35.62v19c-5.56,4.65-13.5,11.25-24.68,20.33H331.83c-25.13-25.13-59-55.73-71.86-63.45V243.4c19-10.65,97.66-84,103.88-97.43V127.3A12.74,12.74,0,0,0,351.1,114.55ZM242.43,228.47l-10.13-10c.45-.45,48.68-41.85,74.48-63.15H329.2C324.55,158.65,246.4,224.8,242.43,228.47Z"/>
    <path id="timesheet-outline" d="M250,5C114.69,5,5,114.69,5,250S114.69,495,250,495,495,385.31,495,250,385.31,5,250,5ZM126.25,66.25H376.3v13.2h-250ZM376.3,433.75h-250v-13.2H376.3ZM378,146.8c0,14.25-74.47,82.5-104.62,104.4,29.1,22.05,102.08,89,102.08,103.65v19.58a27.06,27.06,0,0,1-26.93,26.92H148.9A27,27,0,0,1,122,374.43V354.85c0-14.17,74.47-82.42,104.62-104.33-29.1-22.05-102.07-89.1-102.07-103.72V127.3a26.94,26.94,0,0,1,26.92-26.92H351.1A26.94,26.94,0,0,1,378,127.3Z"/>
  </g>
</svg>
